X:101
T:Klara Stj\"arnor
R:sl-polska
A:Uppland
Z:id:hn-sp-101
M:3/4
L:1/16
K:Gm
G2AB G2AB G2AB | cBAG d4 d4 | d2=e^f g2a2 b2g2 | ^fgaf d2c2 B2A2 |
G2AB G2AB G2AB | cBAG d4 d4 | d2=e^f g2a2 b2g2 | ^fgaf g8 :|
|: B2d2 B2d2 edcB | A2c2 A2c2 dcBA | G2B2 G2B2 cBAG | ^FGAF D8 |
B2d2 B2d2 edcB | A2c2 A2c2 dcBA | G2B2 G2B2 cBAG | ^F2=EF G8 :|
